dressly/src/assets/brand/gucci.svg

<svg width="167" height="111" viewBox="0 0 167 111" fill="none" xmlns="http://www.w3.org/2000/svg">
<path fill-rule="evenodd" clip-rule="evenodd" d="M115.98 70.9208C115.98 82.8347 106.286 92.5 94.3365 92.5C90.894 92.5 87.6495 91.7115 84.7215 90.2513C81.8326 91.672 78.5485 92.5 75.1462 92.5C63.1959 92.5 53.5016 82.8347 53.5016 70.9208C53.5016 59.0069 63.1959 49.3417 75.1456 49.3417C78.5882 49.3417 81.8326 50.1307 84.721 51.5508C87.6099 50.1307 90.894 49.3417 94.3365 49.3417C106.286 49.3417 115.98 59.0069 115.98 70.9208ZM111.707 70.9208C111.707 61.3741 103.912 53.6025 94.3365 53.6025C92.5165 53.6025 90.736 53.8785 89.1135 54.3916C92.4372 57.1528 94.8512 60.861 96.0377 65.1219H91.5665C90.3106 61.565 87.9202 58.5164 84.7612 56.4427C81.635 58.4938 79.2607 61.5322 77.9949 65.1219H73.5237C74.6946 60.9202 77.1074 57.1673 80.4479 54.3521C78.7431 53.8282 76.9692 53.5622 75.1852 53.563C65.6099 53.563 57.8149 61.3346 57.8149 70.8813C57.8149 80.428 65.6099 88.2002 75.1852 88.2002C77.0053 88.2002 78.7461 87.9242 80.3686 87.4111C76.0559 83.8214 73.2468 78.5349 72.8115 72.6175H83.099V76.8383L78.0736 76.9173C79.3796 80.3891 81.7143 83.3089 84.7612 85.3205C87.8075 83.3083 90.1421 80.3891 91.4482 76.9173L86.4227 76.8383V72.6175H96.7109C96.2359 78.5349 93.3872 83.7818 89.0739 87.3716C90.736 87.8847 92.5165 88.2002 94.3365 88.2002C103.952 88.2397 111.707 80.507 111.707 70.9208Z" fill="#BDBDBD"/>
<path d="M112.387 23.0084L112.254 23.0525C111.737 21.9327 110.998 21.0411 110.037 20.378C109.091 19.7152 107.902 19.3838 106.469 19.3838C105.671 19.3838 104.909 19.5533 104.185 19.8922C103.461 20.216 102.826 20.6801 102.279 21.2844C101.747 21.8736 101.318 22.5883 100.993 23.4285C100.668 24.2679 100.505 25.1961 100.505 26.2129C100.505 27.2294 100.668 28.1575 100.993 28.9973C101.318 29.8371 101.747 30.5592 102.279 31.1635C102.826 31.7527 103.461 32.2094 104.185 32.5336C104.909 32.8578 105.671 33.0199 106.469 33.0199C107.887 33.0199 109.04 32.7989 109.926 32.3569C110.828 31.8999 111.589 31.2072 112.21 30.2791L112.343 30.3233L112.298 31.7375C111.958 32.0912 111.567 32.4081 111.123 32.6881C110.681 32.9535 110.2 33.182 109.683 33.3738C109.18 33.55 108.656 33.6825 108.109 33.7712C107.562 33.8743 107.015 33.9258 106.469 33.9258C105.331 33.9258 104.244 33.7418 103.21 33.3738C102.176 33.005 101.267 32.4892 100.483 31.8264C99.7 31.1486 99.0793 30.3382 98.6213 29.3953C98.1632 28.4377 97.9341 27.3769 97.9341 26.2129C97.9341 25.0489 98.1634 23.9952 98.6218 23.052C99.0795 22.0944 99.7 21.2769 100.483 20.5993C101.267 19.9214 102.176 19.4057 103.21 19.052C104.244 18.684 105.33 18.5 106.468 18.5C107.015 18.5 107.562 18.544 108.109 18.6319C108.656 18.7206 109.18 18.8606 109.683 19.052C110.2 19.229 110.68 19.4576 111.123 19.7376C111.567 20.0026 111.958 20.3119 112.298 20.6656L112.387 23.0084ZM63.5392 27.2297C63.3768 27.3033 63.2217 27.399 63.0741 27.5168C62.9264 27.6345 62.8526 27.7967 62.8526 28.0031V30.7219C62.1428 31.7383 61.2336 32.5266 60.1251 33.0868C59.017 33.6465 57.7906 33.9264 56.4459 33.9264C55.3079 33.9264 54.2216 33.7422 53.1869 33.3738C52.1527 33.0054 51.2439 32.4896 50.4606 31.8264C49.6773 31.1486 49.0566 30.3384 48.5986 29.3959C48.1405 28.4379 47.9114 27.3769 47.9114 26.2129C47.9114 25.0492 48.1407 23.9958 48.5991 23.0525C49.0568 22.095 49.6773 21.2772 50.4606 20.5993C51.2439 19.9214 52.1527 19.4059 53.1869 19.0526C54.2216 18.6842 55.3079 18.5 56.4459 18.5C56.9926 18.5 57.5393 18.5442 58.0859 18.6325C58.633 18.7208 59.1575 18.8608 59.6595 19.0526C60.177 19.2292 60.6574 19.4576 61.1007 19.7376C61.5441 20.003 61.9357 20.3123 62.2757 20.6656L62.3648 23.0084L62.2314 23.0525C61.7146 21.9331 60.9758 21.0417 60.015 20.3785C59.0689 19.7154 57.8792 19.3838 56.4459 19.3838C55.6479 19.3838 54.8868 19.5533 54.1625 19.8922C53.4387 20.2164 52.8034 20.6805 52.2568 21.2844C51.7245 21.874 51.2957 22.5887 50.9705 23.4285C50.6453 24.2683 50.4827 25.1964 50.4827 26.2129C50.4827 27.2146 50.6382 28.1354 50.949 28.9752C51.2738 29.8154 51.7021 30.5375 52.234 31.1414C52.7811 31.7306 53.4165 32.1946 54.1404 32.5336C54.8646 32.8578 55.6331 33.0199 56.4459 33.0199C57.983 33.0199 59.2981 32.7253 60.3915 32.1361V28.0031C60.3915 27.797 60.3103 27.6349 60.1479 27.5168C60.0002 27.399 59.8526 27.3031 59.7049 27.2292L59.7248 27.1188C59.7986 27.1323 59.9316 27.147 60.124 27.1629C60.3163 27.1765 60.5158 27.1912 60.7225 27.2071H62.6288C62.8064 27.1935 62.9764 27.1788 63.1388 27.1629C63.3012 27.1494 63.4267 27.1346 63.5153 27.1188L63.5392 27.2297ZM79.5952 18.9637C79.4476 19.0373 79.3 19.1332 79.1523 19.2513C79.0043 19.3691 78.9229 19.5901 78.9081 19.9143C78.8945 20.268 78.8798 20.7173 78.8638 21.2623C78.8638 21.793 78.8572 22.3973 78.844 23.0752C78.844 23.7527 78.8372 24.4893 78.8236 25.285V27.7602C78.81 28.7178 78.6917 29.5356 78.4687 30.2134C78.2472 30.8913 77.9518 31.4584 77.5823 31.9148C77.2275 32.3719 76.8285 32.7329 76.3852 32.9979C75.9566 33.2632 75.5281 33.4621 75.0995 33.5946C74.6858 33.7418 74.2941 33.8303 73.9246 33.8601C73.5551 33.9043 73.2668 33.9264 73.0597 33.9264C72.2174 33.9264 71.4046 33.816 70.6213 33.5952C69.838 33.3887 69.1509 33.0498 68.56 32.5783C67.969 32.1065 67.4962 31.4951 67.1414 30.7439C66.7867 29.9925 66.6093 29.0788 66.6093 28.0031V23.2071C66.6093 22.5002 66.6025 21.8668 66.5889 21.3071C66.5889 20.7322 66.5821 20.268 66.5685 19.9143C66.5553 19.5901 66.4741 19.3693 66.3249 19.2519C66.1773 19.1337 66.0297 19.0377 65.882 18.9637L65.9018 18.8533C65.9756 18.8668 66.0941 18.8816 66.2573 18.8974C66.4345 18.911 66.6117 18.9257 66.7888 18.9416C66.9812 18.9416 67.1657 18.9484 67.3425 18.9619H68.1409C68.3185 18.9484 68.5032 18.9416 68.6952 18.9416C68.8875 18.928 69.0649 18.9133 69.2273 18.8974C69.4044 18.8839 69.5299 18.8692 69.6038 18.8533L69.6242 18.9637C69.4618 19.0373 69.3065 19.1332 69.1585 19.2513C69.0256 19.3691 68.9518 19.5901 68.937 19.9143C68.9234 20.268 68.9087 20.732 68.8927 21.3065V28.0031C68.8927 29.6091 69.2696 30.7953 70.0234 31.5615C70.7771 32.3277 71.8928 32.7108 73.3704 32.7108C73.7989 32.7108 74.2865 32.6591 74.8332 32.5557C75.3803 32.4379 75.8902 32.2022 76.363 31.8485C76.8507 31.4949 77.2571 30.994 77.5823 30.3459C77.9222 29.6975 78.0922 28.8356 78.0922 27.7602C78.0922 26.5962 78.0854 25.6016 78.0718 24.7765C78.0718 23.9367 78.065 23.222 78.0514 22.6324C78.0514 22.0282 78.0446 21.5126 78.031 21.0857C78.0178 20.6584 78.003 20.268 77.9867 19.9143C77.9735 19.5901 77.8923 19.3691 77.7431 19.2513C77.5955 19.1335 77.4478 19.0377 77.3002 18.9637L77.32 18.8533C77.4828 18.8827 77.6675 18.9124 77.8742 18.9422C78.0813 18.9554 78.2737 18.9619 78.4512 18.9619C78.6132 18.9619 78.7978 18.9554 79.0049 18.9422C79.2263 18.9127 79.4185 18.8831 79.5813 18.8533L79.5952 18.9637ZM95.6805 23.0084L95.5476 23.0525C95.0301 21.9327 94.2911 21.0411 93.3306 20.378C92.3849 19.7152 91.1953 19.3838 89.7616 19.3838C88.9639 19.3838 88.203 19.5533 87.4788 19.8922C86.7545 20.216 86.1191 20.6801 85.5724 21.2844C85.0401 21.8736 84.6116 22.5883 84.2868 23.4285C83.9616 24.2679 83.799 25.1961 83.799 26.2129C83.799 27.2294 83.9616 28.1575 84.2868 28.9973C84.6116 29.8371 85.0401 30.5592 85.5724 31.1635C86.1191 31.7527 86.7543 32.2094 87.4782 32.5336C88.2028 32.8578 88.9639 33.0199 89.7616 33.0199C91.1805 33.0199 92.3333 32.7989 93.2199 32.3569C94.1213 31.8999 94.8824 31.2072 95.5033 30.2791L95.6362 30.3233L95.5919 31.7375C95.2519 32.0912 94.8603 32.4081 94.417 32.6881C93.974 32.9535 93.4938 33.182 92.9763 33.3738C92.4739 33.55 91.9494 33.6825 91.4027 33.7712C90.8557 33.8743 90.3088 33.9258 89.7622 33.9258C88.6238 33.9258 87.5374 33.7418 86.5032 33.3738C85.4689 33.005 84.5601 32.4892 83.7768 31.8264C82.9935 31.1486 82.3729 30.3382 81.9148 29.3953C81.4563 28.4377 81.2271 27.3769 81.2271 26.2129C81.2271 25.0489 81.4563 23.9952 81.9148 23.052C82.3732 22.0944 82.9939 21.2769 83.7768 20.5993C84.5601 19.9214 85.4689 19.4057 86.5032 19.052C87.5378 18.684 88.6241 18.5 89.7622 18.5C90.3088 18.5 90.8555 18.544 91.4021 18.6319C91.9492 18.7206 92.4737 18.8606 92.9757 19.052C93.4932 19.229 93.9736 19.4576 94.417 19.7376C94.8603 20.0026 95.2519 20.3119 95.5919 20.6656L95.6805 23.0084ZM119.068 33.5499C118.994 33.5367 118.869 33.5222 118.692 33.5063C118.529 33.5063 118.352 33.4995 118.16 33.4859C117.967 33.4859 117.782 33.4794 117.605 33.4662H116.276C116.098 33.4794 115.921 33.4939 115.743 33.5098C115.581 33.5233 115.455 33.538 115.367 33.5539L115.346 33.4656C115.494 33.392 115.642 33.2961 115.789 33.178C115.937 33.0602 116.019 32.8392 116.034 32.515C116.047 32.1613 116.054 31.7929 116.054 31.4098C116.068 31.0267 116.074 30.5921 116.074 30.106V22.3047C116.074 21.8182 116.068 21.3907 116.054 21.0224C116.054 20.6392 116.047 20.271 116.034 19.9178C116.02 19.5935 115.939 19.3725 115.79 19.2548C115.642 19.1219 115.495 19.0187 115.347 18.9451L115.367 18.8568C115.455 18.8862 115.581 18.9083 115.743 18.923C115.921 18.923 116.098 18.9298 116.275 18.9433C116.468 18.9569 116.652 18.9637 116.83 18.9637H117.605C117.782 18.9501 117.967 18.9433 118.159 18.9433C118.352 18.9298 118.529 18.9151 118.692 18.8992C118.869 18.8856 118.994 18.8709 119.068 18.855L119.089 18.9439C118.926 19.0175 118.771 19.1206 118.623 19.253C118.49 19.3708 118.416 19.5916 118.401 19.9154C118.388 20.2695 118.373 20.6381 118.357 21.0212V31.4087C118.371 31.7914 118.385 32.1596 118.401 32.5133C118.415 32.8375 118.488 33.0585 118.623 33.1762C118.771 33.294 118.926 33.3899 119.089 33.4639L119.068 33.5499Z" fill="#BDBDBD"/>
</svg>

<svg xmlns="http://www.w3.org/2000/svg" width="167" height="111" fill="none"><path fill="#BDBDBD" fill-rule="evenodd" d="M115.98 70.92c0 11.915-9.694 21.58-21.644 21.58a21.4 21.4 0 0 1-9.614-2.249 21.8 21.8 0 0 1-9.576 2.249c-11.95 0-21.644-9.665-21.644-21.58 0-11.913 9.694-21.578 21.644-21.578 3.442 0 6.687.789 9.575 2.209a21.8 21.8 0 0 1 9.615-2.21c11.95 0 21.644 9.666 21.644 21.58m-4.273 0c0-9.546-7.795-17.318-17.37-17.318-1.82 0-3.601.277-5.224.79a21.33 21.33 0 0 1 6.925 10.73h-4.471a17.26 17.26 0 0 0-6.806-8.68c-3.126 2.052-5.5 5.09-6.766 8.68h-4.471a21.7 21.7 0 0 1 6.924-10.77 17.9 17.9 0 0 0-5.263-.789c-9.575 0-17.37 7.772-17.37 17.318s7.795 17.32 17.37 17.32c1.82 0 3.561-.277 5.184-.79-4.313-3.59-7.122-8.876-7.558-14.793H83.1v4.22l-5.025.08a17.35 17.35 0 0 0 6.687 8.402 17.36 17.36 0 0 0 6.687-8.403l-5.025-.079v-4.22H96.71a21.38 21.38 0 0 1-7.637 14.754c1.662.513 3.442.828 5.263.828 9.615.04 17.37-7.693 17.37-17.28" clip-rule="evenodd"/><path fill="#BDBDBD" d="m112.387 23.008-.133.044q-.776-1.679-2.217-2.674-1.419-.994-3.568-.994-1.198 0-2.284.508a5.7 5.7 0 0 0-1.906 1.392q-.798.884-1.286 2.145-.488 1.258-.488 2.784 0 1.524.488 2.784t1.286 2.166a5.8 5.8 0 0 0 1.906 1.37 5.5 5.5 0 0 0 2.284.487q2.128 0 3.457-.663 1.353-.686 2.284-2.078l.133.044-.045 1.415q-.51.53-1.175.95a8.6 8.6 0 0 1-1.44.686 9 9 0 0 1-1.574.397 9 9 0 0 1-1.64.155 9.7 9.7 0 0 1-3.259-.552 8.7 8.7 0 0 1-2.727-1.548 7.5 7.5 0 0 1-1.862-2.43q-.687-1.438-.687-3.183 0-1.746.688-3.161a7.5 7.5 0 0 1 1.861-2.453 8.2 8.2 0 0 1 2.727-1.547 9.6 9.6 0 0 1 3.258-.552q.82 0 1.641.132a8 8 0 0 1 1.574.42q.776.266 1.44.686.666.397 1.175.928zM63.539 27.23q-.243.11-.465.287a.59.59 0 0 0-.221.486v2.719a7.3 7.3 0 0 1-2.728 2.365q-1.661.84-3.68.84a9.6 9.6 0 0 1-3.258-.553 8.7 8.7 0 0 1-2.726-1.548 7.5 7.5 0 0 1-1.862-2.43q-.687-1.438-.688-3.183 0-1.746.688-3.16a7.5 7.5 0 0 1 1.862-2.454 8.1 8.1 0 0 1 2.726-1.546 9.6 9.6 0 0 1 3.259-.553q.82 0 1.64.133a8 8 0 0 1 1.574.42 6.8 6.8 0 0 1 1.44.685 5.6 5.6 0 0 1 1.176.928l.089 2.342-.134.044q-.774-1.678-2.216-2.674-1.419-.994-3.57-.994-1.196 0-2.282.508a5.7 5.7 0 0 0-1.906 1.392q-.798.885-1.286 2.145-.489 1.26-.488 2.784 0 1.502.466 2.762.487 1.26 1.285 2.166a6.1 6.1 0 0 0 1.906 1.393 5.6 5.6 0 0 0 2.306.486q2.305 0 3.946-.884v-4.133a.57.57 0 0 0-.244-.486 2.5 2.5 0 0 0-.443-.288l.02-.11q.111.02.399.044l.598.044h1.907q.266-.02.51-.044.243-.02.376-.044zm16.056-8.266q-.22.11-.443.287-.222.178-.244.663-.02.53-.044 1.348 0 .796-.02 1.813 0 1.017-.02 2.21v2.475q-.02 1.437-.355 2.453-.332 1.017-.887 1.702a4.3 4.3 0 0 1-1.197 1.083 5.6 5.6 0 0 1-1.285.597 4.6 4.6 0 0 1-1.175.265q-.555.066-.865.066-1.264 0-2.439-.33a5.5 5.5 0 0 1-2.061-1.018q-.886-.708-1.419-1.834-.531-1.127-.532-2.74v-4.797q0-1.06-.02-1.9 0-.862-.02-1.393-.02-.486-.244-.662a2.5 2.5 0 0 0-.443-.288l.02-.11q.11.02.355.043.266.021.532.045.288 0 .553.02h.799q.266-.02.554-.02a20 20 0 0 0 .532-.045q.266-.02.377-.044l.02.11q-.243.111-.465.288-.2.178-.222.663-.02.531-.044 1.392v6.697q0 2.409 1.13 3.558 1.131 1.15 3.347 1.15.643 0 1.463-.155a3.9 3.9 0 0 0 1.53-.707q.732-.531 1.22-1.503.51-.972.51-2.586 0-1.745-.021-2.984 0-1.26-.02-2.144 0-.907-.021-1.546a78 78 0 0 0-.044-1.172q-.02-.486-.244-.663a2.5 2.5 0 0 0-.443-.287l.02-.11q.245.043.554.088.311.02.577.02.243 0 .554-.02.331-.045.576-.089zm16.085 4.044-.132.044q-.777-1.679-2.217-2.674-1.419-.994-3.57-.994-1.196 0-2.282.508a5.7 5.7 0 0 0-1.907 1.392q-.798.884-1.285 2.145-.488 1.258-.488 2.784 0 1.524.488 2.784.487 1.26 1.285 2.166a5.8 5.8 0 0 0 1.906 1.37 5.5 5.5 0 0 0 2.284.487q2.127 0 3.458-.663 1.352-.686 2.283-2.078l.133.044-.044 1.415q-.51.53-1.175.95a8.6 8.6 0 0 1-1.44.686 9 9 0 0 1-1.574.397 9 9 0 0 1-1.64.155 9.7 9.7 0 0 1-3.26-.552 8.7 8.7 0 0 1-2.726-1.548 7.5 7.5 0 0 1-1.862-2.43q-.688-1.438-.688-3.183 0-1.746.688-3.161a7.5 7.5 0 0 1 1.862-2.453 8.2 8.2 0 0 1 2.726-1.547 9.7 9.7 0 0 1 3.26-.552q.82 0 1.64.132a8 8 0 0 1 1.573.42q.776.266 1.441.686.665.397 1.175.928zm23.388 10.542a5 5 0 0 0-.376-.044 8 8 0 0 1-.532-.02 8 8 0 0 1-.555-.02h-1.329q-.267.02-.533.044a4 4 0 0 0-.376.044l-.021-.088a2.5 2.5 0 0 0 .443-.288q.222-.177.245-.663.02-.53.02-1.105.02-.575.02-1.304v-7.801q0-.73-.02-1.283 0-.575-.02-1.104-.02-.487-.244-.663a2 2 0 0 0-.443-.31l.02-.088q.132.044.376.066.267 0 .532.02.289.02.555.02h.775q.266-.02.554-.02.289-.02.533-.044.265-.02.376-.044l.021.089a1.8 1.8 0 0 0-.466.309q-.2.177-.222.662-.02.532-.044 1.106V31.41q.02.573.044 1.104.02.487.222.663.222.177.466.288z"/></svg>
